public/svgs/twin/skin.svg

<svg width="100%" height="100%" viewBox="0 0 42 42" fill="none" xmlns="http://www.w3.org/2000/svg">
<path d="M21.4998 6.91016C22.2414 6.91362 22.9515 7.20998 23.4755 7.73469C23.9995 8.2594 24.2949 8.96992 24.2974 9.71147C24.2949 10.4527 23.9994 11.1628 23.4753 11.6869C22.9511 12.211 22.241 12.5066 21.4998 12.509C20.7586 12.5066 20.0485 12.211 19.5244 11.6869C19.0003 11.1628 18.7047 10.4527 18.7022 9.71147C18.7035 8.96963 18.9985 8.25849 19.5228 7.73367C20.0471 7.20884 20.758 6.91214 21.4998 6.91016ZM34.101 16.7101H25.6999V34.9102H22.9023V26.509H20.102V34.9102H17.3044V16.7101H8.90234V13.9116H34.101V16.7091V16.7101Z" fill="current" stroke="#00000000"/>
<path d="M41 36V41H36M41 6V1H36M6 1H1V6M1 36V41H6" fill="#00000000" stroke="current" stroke-width="2"/>
</svg>

<svg xmlns="http://www.w3.org/2000/svg" fill="none" viewBox="0 0 42 42"><path fill="current" stroke="#00000000" d="M21.5 6.91a2.81 2.81 0 0 1 2.797 2.801A2.807 2.807 0 0 1 21.5 12.51a2.807 2.807 0 0 1-2.798-2.798 2.805 2.805 0 0 1 2.798-2.8Zm12.601 9.8H25.7v18.2h-2.798V26.51h-2.8v8.401h-2.798v-18.2H8.902v-2.798h25.199v2.798Z"/><path fill="#00000000" stroke="current" stroke-width="2" d="M41 36v5h-5m5-35V1h-5M6 1H1v5m0 30v5h5"/></svg>
